build/img/svg/icon-termo.svg

<svg width="16" height="16" viewBox="0 0 16 16" fill="none" xmlns="http://www.w3.org/2000/svg">
<path d="M4.61805 15.7496C4.26447 15.6695 3.89591 15.6288 3.55957 15.5023C2.09095 14.9484 1.19577 13.8783 0.911855 12.3208C0.604722 10.6364 1.39877 8.96793 2.77638 8.11623C2.86552 8.06114 2.89174 7.99922 2.89174 7.89779C2.88874 6.06701 2.88874 4.23634 2.89174 2.40581C2.89174 1.55145 3.24419 0.886272 3.99929 0.489673C5.36304 -0.229067 6.95563 0.752553 6.97998 2.31844C6.99122 3.02426 6.98335 3.73046 6.98335 4.43629C6.98335 5.59646 6.98335 6.75624 6.98522 7.91603C6.98522 7.97187 7.01069 8.05317 7.05152 8.07862C7.53489 8.37918 7.95361 8.77543 8.28267 9.24372C9.15351 8.19372 10.2521 7.6653 11.6083 7.75952C12.6402 7.83131 13.5039 8.27654 14.1927 9.05454C15.5977 10.6402 15.4456 13.076 13.8459 14.5249C12.3477 15.8826 9.80897 15.8989 8.28529 13.9892C8.16731 14.1309 8.05644 14.2772 7.93247 14.4117C7.2313 15.1714 6.37021 15.6125 5.34618 15.7242C5.31225 15.7302 5.27882 15.7389 5.24618 15.75L4.61805 15.7496ZM6.47059 4.12516C6.47059 3.53444 6.47059 2.96994 6.47059 2.40543C6.47439 2.09225 6.39481 1.78384 6.24024 1.5127C5.80426 0.742297 4.69671 0.529941 4.01277 1.08609C3.58991 1.43027 3.39813 1.87321 3.39888 2.41569C3.40226 4.30181 3.39888 6.18832 3.40338 8.07596C3.40338 8.2659 3.33296 8.37341 3.17865 8.47826C2.89848 8.6682 2.61382 8.86346 2.37785 9.10355C1.6662 9.82533 1.35046 10.7173 1.35645 11.7316C1.3542 11.8015 1.36834 11.871 1.3977 11.9343C1.42707 11.9977 1.47082 12.053 1.52537 12.0959C2.13215 12.6118 2.82207 12.7527 3.58354 12.5764C4.09667 12.4579 4.47834 12.14 4.82218 11.7513C5.3754 11.1249 6.08105 10.8313 6.90919 10.8484C7.12044 10.8525 7.33093 10.8886 7.50847 10.9069C7.64781 10.541 7.7804 10.1798 7.92535 9.82419C7.95793 9.74441 7.96093 9.69313 7.91336 9.62209C7.59598 9.14141 7.16821 8.74614 6.66685 8.47028C6.53539 8.3981 6.46085 8.30465 6.46946 8.147C6.47658 8.01784 6.46946 7.8883 6.46946 7.74204H6.29043C5.94135 7.74204 5.59226 7.74432 5.24168 7.74204C5.04504 7.73976 4.93867 7.64441 4.93904 7.48448C4.93942 7.32455 5.04654 7.23034 5.24355 7.22692C5.48289 7.22236 5.72223 7.22692 5.96157 7.22692H6.45598V6.71028H6.28144C5.92749 6.71028 5.57316 6.71332 5.21921 6.70838C5.01358 6.70572 4.88885 6.54541 4.95103 6.37104C5.00047 6.23162 5.11695 6.19363 5.25067 6.19363C5.59975 6.19363 5.94884 6.19363 6.29942 6.19363C6.35223 6.19363 6.40504 6.18907 6.46085 6.18642V5.67281H6.29268C5.92861 5.67281 5.56455 5.67509 5.20048 5.67053C5.04542 5.66863 4.94916 5.5729 4.94092 5.43386C4.93268 5.28837 5.02594 5.18124 5.18213 5.16035C5.22184 5.15654 5.26175 5.1554 5.30161 5.15693C5.63571 5.15693 5.96981 5.15693 6.30391 5.15693C6.35635 5.15693 6.40879 5.15237 6.45973 5.15009V4.64257H6.06495C5.78066 4.64257 5.49638 4.64523 5.21209 4.64257C5.04317 4.63991 4.93867 4.53582 4.93942 4.38539C4.94017 4.23495 5.04504 4.13732 5.21471 4.12896C5.2694 4.1263 5.32446 4.12896 5.37914 4.12896L6.47059 4.12516ZM11.3398 8.26058C9.53255 8.22943 8.01 9.73491 8.00625 11.6009C8.00288 13.4787 9.46438 14.9439 11.2944 14.9712C13.1039 14.9997 14.6156 13.5037 14.6426 11.6385C14.6695 9.80367 13.1938 8.29401 11.3398 8.2621V8.26058ZM1.55646 12.7812C1.55681 12.7907 1.55806 12.8001 1.56021 12.8093C2.09694 14.4516 3.87981 15.5065 5.5578 15.1733C6.54999 14.9769 7.33468 14.4622 7.90774 13.6158C7.95981 13.5398 7.95681 13.4874 7.92235 13.4016C7.79875 13.0904 7.66429 12.7789 7.58788 12.4545C7.51147 12.1301 7.49986 11.7905 7.45753 11.4398C7.07416 11.3325 6.66982 11.3284 6.28443 11.4281C5.76343 11.5584 5.38364 11.89 5.02519 12.2782C4.28208 13.0847 3.35618 13.3199 2.30744 13.0688C2.05124 13.0072 1.80891 12.88 1.55833 12.7812H1.55646Z" fill="white"/>
<path d="M1.87099 11.6291C1.89834 10.6053 2.29911 9.76998 3.10365 9.14203C3.22715 9.04848 3.35722 8.96417 3.49281 8.88979C3.54934 8.85593 3.61678 8.84611 3.68042 8.86248C3.74406 8.87884 3.79874 8.92007 3.83253 8.97716C3.90481 9.09379 3.87822 9.23359 3.75762 9.32248C3.63701 9.41137 3.50292 9.48165 3.38606 9.57434C2.72423 10.0993 2.40286 10.7968 2.38151 11.6405C2.37851 11.7583 2.36241 11.8745 2.24742 11.9201C2.17251 11.9494 2.0519 11.965 2.00134 11.9243C1.92193 11.8612 1.85863 11.6367 1.87099 11.6291Z" fill="white"/>
<path d="M3.92064 2.26715C3.93309 2.01058 4.03952 1.76797 4.2191 1.58682C4.39867 1.40567 4.63845 1.29904 4.89148 1.28781C5.05066 1.27983 5.17389 1.37822 5.18588 1.52257C5.19786 1.66693 5.10273 1.7733 4.94879 1.79799C4.60008 1.85307 4.49146 1.96172 4.42217 2.32489C4.38921 2.4966 4.28171 2.59081 4.14088 2.57219C4.00004 2.55358 3.9124 2.43885 3.92064 2.26715Z" fill="white"/>
<path d="M12.7847 10.4932C12.9072 10.7884 13.0199 11.0596 13.1443 11.3597C13.3499 11.3597 13.5937 11.3498 13.8357 11.3647C13.9268 11.3701 14.0124 11.4109 14.0747 11.4786C14.1177 11.5364 14.1282 11.6686 14.0911 11.7248C14.0628 11.7635 14.0271 11.7959 13.9861 11.8203C13.9451 11.8446 13.8997 11.8603 13.8525 11.8665C13.6098 11.8851 13.3656 11.8729 13.1431 11.8729C13.0225 12.1635 12.9079 12.4386 12.7809 12.7436C12.9356 12.8956 13.1214 13.0711 13.2978 13.2557C13.4012 13.3636 13.4046 13.4958 13.324 13.5976C13.2919 13.6437 13.2446 13.6767 13.1907 13.6906C13.1367 13.7045 13.0796 13.6985 13.0297 13.6736C12.9766 13.6461 12.9289 13.6092 12.8888 13.5646C12.7491 13.4274 12.6109 13.2891 12.4768 13.1467C12.4251 13.0924 12.3888 13.0817 12.3128 13.1182C12.1026 13.2177 11.882 13.2948 11.67 13.3902C11.6472 13.4021 11.6273 13.4192 11.6118 13.44C11.5964 13.4609 11.5858 13.485 11.5809 13.5106C11.5715 13.7385 11.5809 13.9646 11.5723 14.1914C11.5644 14.3764 11.4224 14.4858 11.2599 14.4425C11.1157 14.4045 11.0681 14.2905 11.0659 14.1553C11.0629 13.9482 11.0603 13.7416 11.0659 13.5349C11.0692 13.4358 11.0333 13.4039 10.9404 13.3727C10.7063 13.2945 10.4797 13.1938 10.2205 13.0901C10.0894 13.2227 9.92873 13.3872 9.76618 13.549C9.72579 13.5936 9.67923 13.6319 9.62797 13.6629C9.57836 13.6939 9.51904 13.7046 9.46196 13.6929C9.40489 13.6812 9.35432 13.6479 9.32046 13.5999C9.2787 13.5546 9.25626 13.4945 9.25801 13.4325C9.25977 13.3705 9.28557 13.3118 9.32982 13.269C9.46466 13.1205 9.60774 12.9795 9.75082 12.839C9.79499 12.8001 9.84208 12.7648 9.89165 12.7334C9.80401 12.5674 9.72685 12.4431 9.67216 12.3098C9.61748 12.1765 9.58489 12.0325 9.5362 11.8729H8.95527C8.89534 11.8729 8.83541 11.876 8.77586 11.8729C8.62192 11.8619 8.51367 11.754 8.51367 11.6161C8.51367 11.4782 8.62267 11.365 8.77586 11.3609C8.98486 11.3548 9.19461 11.359 9.40398 11.3586H9.51635C9.63396 11.0775 9.7452 10.8112 9.87142 10.5099C9.74932 10.388 9.598 10.2368 9.44706 10.0852C9.40696 10.0477 9.36942 10.0074 9.33469 9.96478C9.2961 9.91455 9.27706 9.85169 9.28121 9.78816C9.28535 9.72462 9.31239 9.66485 9.35716 9.62022C9.38045 9.59696 9.40805 9.57859 9.43836 9.56619C9.46868 9.55378 9.50111 9.54757 9.5338 9.54793C9.56648 9.54828 9.59878 9.55518 9.62882 9.56824C9.65887 9.5813 9.68607 9.60026 9.70887 9.62402C9.83734 9.7433 9.9587 9.87057 10.0797 9.99783C10.1347 10.0559 10.1816 10.1217 10.2321 10.184L10.2441 10.1296C10.4928 10.0347 10.7426 9.94274 10.9887 9.84094C11.0093 9.82849 11.0268 9.81139 11.0398 9.79096C11.0528 9.77053 11.0609 9.74733 11.0636 9.72317C11.0711 9.50664 11.0636 9.28934 11.0689 9.07281C11.0749 8.87337 11.1872 8.76586 11.3543 8.78334C11.4884 8.79777 11.5719 8.89312 11.5768 9.05799C11.5828 9.26972 11.5828 9.48144 11.5768 9.69316C11.5741 9.79155 11.6078 9.82308 11.7037 9.85309C11.9393 9.92717 12.1667 10.0275 12.4337 10.1312C12.5652 9.99745 12.7233 9.82384 12.8959 9.66657C12.9607 9.60807 13.0611 9.5526 13.1413 9.5583C13.2128 9.56286 13.3019 9.63884 13.3428 9.70798C13.4005 9.80561 13.3641 9.91425 13.2825 9.99707C13.1076 10.1722 12.9334 10.345 12.7847 10.4932ZM11.3266 10.3306C11.1584 10.329 10.9915 10.3613 10.8358 10.4258C10.6801 10.4903 10.5385 10.5855 10.4195 10.706C10.3004 10.8265 10.2062 10.9699 10.1423 11.1277C10.0785 11.2855 10.0462 11.4547 10.0475 11.6253C10.0475 12.3049 10.6209 12.8903 11.2861 12.9058C11.4613 12.9092 11.6353 12.8764 11.7976 12.8095C11.9598 12.7426 12.107 12.6428 12.2301 12.5164C12.3532 12.39 12.4497 12.2395 12.5137 12.0741C12.5777 11.9087 12.6078 11.7318 12.6023 11.5542C12.5873 10.9088 12.0082 10.3333 11.3266 10.3306V10.3306Z" fill="white"/>
</svg>

<svg width="16" height="16" fill="none" xmlns="http://www.w3.org/2000/svg"><path d="M4.618 15.75c-.354-.08-.722-.121-1.058-.248-1.47-.554-2.364-1.624-2.648-3.181a4.107 4.107 0 011.864-4.205c.09-.055.116-.117.116-.218-.003-1.831-.003-3.662 0-5.492 0-.855.352-1.52 1.107-1.916C5.363-.23 6.956.753 6.98 2.318c.011.706.003 1.412.003 2.118 0 1.16 0 2.32.002 3.48 0 .056.026.137.067.163.483.3.902.696 1.23 1.165.872-1.05 1.97-1.579 3.326-1.484 1.032.071 1.896.517 2.585 1.295 1.405 1.585 1.253 4.021-.347 5.47-1.498 1.358-4.037 1.374-5.56-.536-.119.142-.23.288-.354.423a4.009 4.009 0 01-2.586 1.312.677.677 0 00-.1.026h-.628zM6.471 4.125v-1.72a1.76 1.76 0 00-.23-.892C5.803.743 4.696.53 4.012 1.086c-.423.344-.615.787-.614 1.33.003 1.886 0 3.772.004 5.66 0 .19-.07.297-.224.402-.28.19-.565.385-.801.626-.712.721-1.028 1.613-1.022 2.628a.448.448 0 00.17.364c.606.516 1.296.657 2.058.48.513-.118.894-.436 1.238-.825.553-.626 1.26-.92 2.087-.903.211.004.422.04.6.059.139-.366.271-.727.416-1.083.033-.08.036-.13-.012-.202A3.54 3.54 0 006.667 8.47c-.132-.072-.206-.165-.198-.323.008-.13 0-.259 0-.405H6.29c-.349 0-.698.002-1.048 0-.197-.002-.303-.098-.303-.258s.108-.254.305-.257c.239-.005.478 0 .718 0h.494V6.71h-.175c-.354 0-.708.003-1.062-.002-.205-.002-.33-.163-.268-.337.05-.14.166-.177.3-.177h1.048c.053 0 .106-.005.162-.008v-.513h-.168c-.364 0-.728.002-1.093-.002-.155-.002-.25-.098-.26-.237-.007-.146.086-.253.242-.274a.892.892 0 01.12-.003h1.002c.052 0 .105-.005.156-.007v-.507h-.395c-.284 0-.569.002-.853 0-.169-.003-.273-.107-.273-.258.001-.15.106-.248.276-.256.054-.003.11 0 .164 0l1.092-.004zm4.869 4.136c-1.807-.032-3.33 1.474-3.334 3.34-.003 1.878 1.458 3.343 3.288 3.37 1.81.029 3.322-1.467 3.349-3.332.026-1.835-1.45-3.345-3.303-3.377v-.001zm-9.784 4.52c0 .01.002.02.004.028.537 1.643 2.32 2.698 3.998 2.364a3.57 3.57 0 002.35-1.557c.052-.076.049-.129.014-.214-.123-.312-.258-.623-.334-.947-.077-.325-.088-.665-.13-1.015a2.255 2.255 0 00-1.174-.012c-.52.13-.9.462-1.259.85-.743.807-1.669 1.042-2.718.79-.256-.06-.498-.188-.749-.287h-.002z" fill="#fff"/><path d="M1.871 11.63c.027-1.025.428-1.86 1.233-2.488.123-.094.253-.178.389-.252a.246.246 0 01.34.087c.072.117.045.257-.075.345-.121.09-.255.16-.372.252-.662.525-.983 1.223-1.004 2.066-.003.118-.02.234-.135.28-.074.03-.195.045-.246.004-.08-.063-.142-.287-.13-.295zM3.92 2.267a1.04 1.04 0 01.3-.68 1.01 1.01 0 01.671-.3c.16-.007.283.091.295.236.012.144-.083.25-.237.275-.349.055-.458.164-.527.527-.033.172-.14.266-.281.247-.141-.018-.229-.133-.22-.305zm8.865 8.226l.36.867c.205 0 .449-.01.69.005a.353.353 0 01.24.114c.043.057.053.19.016.246a.355.355 0 01-.239.142c-.242.018-.486.006-.709.006l-.362.87c.155.153.34.328.517.513.103.108.107.24.026.342a.234.234 0 01-.294.076.496.496 0 01-.141-.11 15.03 15.03 0 01-.412-.417c-.052-.055-.088-.065-.164-.029-.21.1-.431.177-.643.272a.172.172 0 00-.09.12c-.008.229 0 .455-.008.681-.008.185-.15.295-.312.252-.144-.038-.192-.152-.194-.288a14.92 14.92 0 010-.62c.003-.1-.033-.131-.126-.162-.234-.079-.46-.18-.72-.283-.13.133-.291.297-.454.459a.617.617 0 01-.138.114.227.227 0 01-.308-.063.237.237 0 01.01-.331c.135-.149.278-.29.42-.43a1.12 1.12 0 01.142-.106c-.088-.166-.165-.29-.22-.423-.055-.133-.087-.277-.136-.437h-.58c-.06 0-.12.003-.18 0-.154-.011-.262-.119-.262-.257s.109-.251.262-.255c.209-.006.419-.002.628-.002h.112c.118-.281.23-.548.355-.85l-.424-.424a1.22 1.22 0 01-.112-.12.262.262 0 01.103-.399.245.245 0 01.27.058c.13.12.25.247.372.374.055.058.102.124.152.186l.012-.054c.249-.095.499-.187.745-.29a.157.157 0 00.075-.117c.007-.216 0-.434.005-.65.006-.2.118-.307.285-.29.134.015.218.11.223.275.006.212.006.423 0 .635-.003.099.03.13.127.16.235.074.463.175.73.278.131-.134.29-.307.462-.464.065-.059.165-.114.245-.109.072.005.16.08.202.15.057.098.021.206-.06.29l-.498.495zm-1.458-.162a1.251 1.251 0 00-.908.375 1.287 1.287 0 00-.372.92c0 .679.574 1.264 1.24 1.28a1.277 1.277 0 00.943-.39 1.313 1.313 0 00.372-.962c-.015-.645-.594-1.22-1.275-1.223z" fill="#fff"/></svg>
